X: 24424
T: Low Highland, The
R: strathspey
M: 4/4
K: Adorian
A,A, (B,/A,/G,/A,/) ED (B,/C/B,/A,/)|G,A,B,G DG,B,G,|A,A, (B,/A,/G,/A,/) ED (B,/C/B,/A,/)|1 G,A,B,G, (3A,B,A, G,B,:|2 G,A,B,G, (3A,B,A, G,D||
Abag e^def|gg{a}g{f}g dgBG|Abag e^def|gdBG (3ABA ^GB|
Abag e^def|gg{a}g{f}g dgfg|(3agf (3gfe fdAF|GEDB, (3A,B,A, G,2B,||

